-----BEGIN PGP MESSAGE-----

owGFVnuQlWUdXmAZ2AMswjAgCs1hUJDLOb73y4AWiBKoSGy0qMDOe4Ud9gK7SzJW
DDZk7WgM7CQkacAUGRSKxngZCZ3EGg2BSCMxcYuCphYqpjBqB3qO5YzTH7izf5wz
53u/7/k9v+fybRzSr2pgn+rxPYe+8dIbg/rsqZnoB982545b68rty52krHF31UTH
tM0hU51yDiwrJkP2MlFPvEvcExmDEExyQZTgijqakiTKq8ySiSlGGZONjOAKI7lO
OqugKY1WZhez9clSS7O0TuNA4jhkc87KeK60VSTYYnG+a0qlO1tbW0pclGmZNCxI
Tcm1p3KHaysvu79gnXGCU+MlTcEG3DD5GCRhnFqholJGy+ii0UFQJ2JiQRFFkko5
ESpyzJQpG10OnDqXgMsCcLZBGUWicrJye8uzEo4RG3RQQhqenZQs8sxdKhYXLppf
WjCzAVMqQhn9H7DyStfWQUhBGqqoT54S6j2jzDsuA40kiUxFJNp5EpnIXlPlslYk
C62NN9Q6xolnMoFtLqQPLIakLa6xmkTOPAmOY1wdGH6KOhGZQxAJ41CmvYxWJ4rJ
royPFpwJUmrMK4NXKWhQKVgSimcRszCcWGGJ54wI5jwLIVjliVFRZh+Ui9SkLJNj
mXmps5SW+WCEVpCHsNk443EJMxES8SZowi0Wg2GdzxEMcntlfKwgklI5QTZWZM6F
Fi5Y6S0EQ4yN2SlvkqSUuMi9I1ZZzTRozoICVgxYH0ksSieEZXggBFt5ireecyYt
p8kqkaL2UWfIx7jAhBXBasETs15/zH55wZqQdfaW5Q/Ey5wOwVjwL6mvkMQNBUuQ
O3YjAoeuoB5sPkcYx6WotHfYgIoR8zjuBXEJ/3BZSDxG5njiwsmIk85yE/CZas+4
BCkC414ZnyhgDJ25JKFiqpi40RySIy4nrXO0oCV6xwS3RMocvWQCl4IOaoOHPw0e
nEOFHS69dC4Spz2XLJNEbdTgznuKL8QbolRkKgn4KlIqZdTM5Y/BJwtJO65VktpF
FRiJnhpjYbOIwLGZaE+sdEpm6rmIlCdDsk0pBwMGTNYJnGUjlHWWJmkMYxjRGhm0
1gz6wGwymSxUcJBRisyAdi+JkBzJAUMVi251R2tobcklVqa8hE/trU2N0XWk2JAb
16T2EgXWjrC8kjZBcZ8FoVxTbbTDtJQ7I0CFNIEKeFfFYJFkPDPGNTLDUbiTBxga
T05UJCsF4kBkEK1wBFvX0kSGZBVaIisMEVAQB3jw6RzxVnCBkDSWC/F/aD/gcs39
IFFT6JgFCssSabSyimosKROaLVIsQIRMK5eoREBahk1ZhnDjREPk2kD6HgsSIJ4Z
qSjRRsG7HsaSkViS4GhGgRzOhYutZNxEDKsDusABVmxtbGnvQHMUkLGgPzhNMXaK
kD+iNkoIJRLFFQFUbJlUIoNRxWBgwVEYVHgpjQoZWaEcR45nZgmFeaVE+VRKwypV
0R1+8B5IhECOxhwksgRqZdoReBGGXdbU6Euh5NqCaHMtsbW5HP67wQJNhjnEKcnK
woeB+WgYtISVSpSZQ/O4nCH0JLERkGkZIiEmEAJbVCTFA/c8Kp8kAgZDpowjzkh4
gXmKyhCgHasLKSuUDDQXKBUwrHfRkWJxJeqsGW1WrmtyYcXM1Y1NsWAokgBJi8zi
WL6wPifcE0KJRBK4NnqWLMxPmRTIdme0RkInQTwYcxm9VtGdhl/RAEY4jtPOSQEX
YJsYQAmDmkEDRo5eA8VwLwN1XCTG1UdQxdS+oqN1ZQEtntGnhHPDoEpaSS5fUaRh
qiJ7HkWqFCSB0hguQqpCLBXykDcOsa6yJeAtIujBAQWNkA+FzIIEJOEREQmwKaoH
Ve8rjaGhAYvXBiE1+wikxpbcWshSmYRcigrzCCcQ5Qm+CaDDQp8Mh2Fnpk1lUIGi
BB4o2kEwUUTFLYenYFaJQVyFUWaQ7jAGOGTKZ+QpZhCWBgrcMguJxEC0RBoybo/F
tVf2VQI/odDZ967qqj4Dq+zIcdV36+PdxxZv2DZmaffBD1+l+vetvDpdO2JdFf6q
q2qbXctqNpWV5RRapvgwlVUVaq768Gp939BLk/9y8PKBbUt61g393vid+5rfXXPx
4ssr/c/FvN37V22uu0PRcGBU5+Tee9+etLDnwes++ch3x/QW99cun3Lnju8cH1B/
D3ntby/eeKT3wZG37ZrdNXPyn/u9fdO2fRP7bz2nuk788IZNU9a6x2YcfaH7iQkT
/jRtx+WXh5zs3lC/oGfe+GkLH9pbWnv7bzZ85dgzdbV9v9S/30+rR696YE/n1gHn
P712/6ZBdS+8tf3sU3PrP7/S9jk1pvPda2bVDDv9+Ks7t47tbFkkdi/5+s6hr1w/
sP+66/89+NtPD3/vzZYfnGoYd4Y0bl3c+f3ThaUrFhwZSWoumkeHzj96+DIdXXp2
2YTm+t9Pnda7o6u0qrftzPqr+6u/nuz51qVnbnnny+n1Z+cMuThdfarfP0/WPzJ3
+Pra5/cMaxyza+zqvuNm/WzepAPn7z3S9ouRPeOf2jV92vonu9iZqq4OWrr1mz9q
qXenX/vxoc7a9we/vvm+vrMPzDg/++6Bv54/eq/ac+i6h2Zt/u2xvb0zLtTKe1TD
js0v/WH6zeufuLT63FUXfnX2udu3TFp76ZUtrt/D279Q3Vv815O/XPTA4seWXJIj
Nj53zfCfTH5RjTrU9dktO08cvXHd4FMjXj31xd/N+UfjzHfS5+Y+/wZ/a1j3iar1
+48+XdfytVvenz0skgt/PHLDoAbac9PNze8VPrP778XD+at3HQ9028bDs89+4lxN
zdUDHj+4oPvNR5deO2bSvrGj5prtm+x/AA==
=K6kH
-----END PGP MESSAGE-----
